src/images/pages/welcome/binarybot.svg

<svg width="32" height="32" viewBox="0 0 32 32" fill="none" xmlns="http://www.w3.org/2000/svg">
<path d="M0 6C0 2.68629 2.68629 0 6 0H26C29.3137 0 32 2.68629 32 6V26C32 29.3137 29.3137 32 26 32H6C2.68629 32 0 29.3137 0 26V6Z" fill="#2A3052"/>
<path fill-rule="evenodd" clip-rule="evenodd" d="M17.4353 16.102C17.4268 15.9897 17.376 15.8849 17.2931 15.8087C17.2689 15.7865 17.2419 15.7551 17.2113 15.7195L17.2113 15.7195C17.1746 15.6768 17.1327 15.6281 17.0842 15.582C17.0716 15.5664 17.0566 15.5529 17.0398 15.542C16.0872 14.5299 16.2048 13.8799 16.2167 13.814L16.2176 13.8087C16.2189 13.599 16.1728 13.3918 16.0827 13.2025C15.9927 13.0131 15.861 12.8466 15.6976 12.7153L15.6487 12.6531C15.6356 12.6425 15.6237 12.6306 15.6131 12.6176C16.1184 12.759 16.632 12.8688 17.1509 12.9464C17.381 12.9883 17.6153 13.0017 17.8487 12.9864C18.3687 12.9864 18.7776 12.9242 18.8042 12.8042C18.332 12.7183 17.8702 12.5828 17.4264 12.3998L17.4077 12.3926C16.9178 12.2034 16.8357 12.1718 16.5153 12.0664C16.0976 11.9287 15.6487 11.7331 15.6487 11.7331C15.8231 11.7793 15.9861 11.8228 16.1392 11.8635L16.1397 11.8637C17.5464 12.2384 18.1072 12.3878 18.8487 12.3998C19.0547 12.4048 19.2606 12.3854 19.462 12.342C19.582 12.342 19.942 12.2398 19.982 12.1153C19.6375 12.1207 19.2947 12.0665 18.9687 11.9553C17.6797 11.5275 17.1184 11.2334 16.605 10.9643C16.2864 10.7973 15.9862 10.64 15.542 10.4664C14.9719 10.2283 14.3813 10.0424 13.7776 9.91089C13.2775 9.79526 12.7576 9.79526 12.2576 9.91089C10.6709 9.53756 10.3109 9.57756 9.84423 9.67978C11.3854 8.69452 13.2168 8.26491 15.0353 8.46201V4.88867H10.222C8.80752 4.88867 7.45096 5.45058 6.45077 6.45077C5.45058 7.45096 4.88867 8.80752 4.88867 10.222V21.7776C4.88867 23.192 5.45058 24.5486 6.45077 25.5488C7.45096 26.549 8.80752 27.1109 10.222 27.1109H15.0442V23.2576C14.8431 23.2221 14.663 23.1933 14.5016 23.1675C13.9744 23.0831 13.6463 23.0305 13.4353 22.8842C13.3509 22.8309 13.0842 22.6887 13.022 22.7242C12.8846 22.8153 12.7212 22.8589 12.5567 22.8485C12.3922 22.8381 12.2357 22.7741 12.1109 22.6664C12.0807 22.6436 12.0525 22.6184 12.0264 22.5909C11.8942 22.488 11.8073 22.3376 11.784 22.1717C11.7608 22.0057 11.8031 21.8373 11.902 21.702C11.9865 21.6131 11.8353 21.3687 11.8353 21.3687C11.8353 21.3687 11.3909 20.7064 11.0887 20.3109C10.8635 19.9101 10.7328 19.4632 10.7064 19.0042C10.5164 18.7799 10.3537 18.5337 10.222 18.2709C10.1467 18.1562 10.0587 18.0504 9.95978 17.9553C9.90402 17.9012 9.85205 17.8433 9.80423 17.782C9.79657 17.7635 9.79657 17.7427 9.80423 17.7242C9.92613 17.4701 10.1039 17.2467 10.3242 17.0709C10.4309 16.9998 10.8887 16.7242 10.8887 16.7242C10.9617 16.6106 11.0598 16.5151 11.1753 16.445C11.2908 16.3749 11.4208 16.3321 11.5553 16.3198C12.0089 16.293 12.463 16.3611 12.8887 16.5198L13.1731 16.6087C13.5903 16.7449 13.9998 16.9037 14.3998 17.0842C14.6209 17.1853 14.848 17.2729 15.0798 17.3464C15.6664 17.502 16.7065 17.0264 16.9242 16.8264C17.2798 16.502 17.4309 16.2842 17.4353 16.102ZM14.7064 13.3331L14.4176 12.9553C14.7015 13.0737 14.9567 13.2516 15.166 13.477C15.3753 13.7024 15.5338 13.9701 15.6309 14.262C14.462 14.542 14.7064 13.3331 14.7064 13.3331ZM19.5509 22.422C19.6546 22.3301 19.7568 22.2324 19.8575 22.1287C21.2425 20.7485 22.0715 18.9072 22.1864 16.9553H27.1109V21.7775C27.1109 23.192 26.549 24.5486 25.5488 25.5488C24.5486 26.549 23.192 27.1109 21.7775 27.1109H16.9553V23.5553C17.917 23.4555 18.824 23.0595 19.5509 22.422ZM11.6411 19.839C11.4946 19.6196 11.3971 19.3713 11.3553 19.1109C12.382 19.0397 11.9997 19.9997 11.9997 19.9997L12.2042 20.382C11.9797 20.2435 11.7876 20.0583 11.6411 19.839ZM16.9553 4.88867H21.7775C23.192 4.88867 24.5486 5.45058 25.5488 6.45077C26.549 7.45096 27.1109 8.80752 27.1109 10.222V15.0309H22.0975C21.9102 13.9473 21.4985 12.9149 20.8887 11.9998L20.8398 11.9553C20.5498 11.5316 20.221 11.1358 19.8575 10.7731C19.0382 9.94836 18.0474 9.31409 16.9553 8.91534V4.88867Z" fill="white"/>
</svg>

<svg width="32" height="32" fill="none" xmlns="http://www.w3.org/2000/svg"><path d="M0 6a6 6 0 016-6h20a6 6 0 016 6v20a6 6 0 01-6 6H6a6 6 0 01-6-6V6z" fill="#2A3052"/><path fill-rule="evenodd" clip-rule="evenodd" d="M17.435 16.102a.444.444 0 00-.142-.293 1.117 1.117 0 01-.082-.09 1.836 1.836 0 00-.171-.177c-.953-1.012-.835-1.662-.823-1.728v-.005a1.39 1.39 0 00-.52-1.094l-.048-.062a.244.244 0 01-.036-.035c.505.141 1.019.25 1.538.328.23.042.464.056.698.04.52 0 .929-.062.955-.182a6.813 6.813 0 01-1.378-.404l-.018-.007c-.49-.19-.572-.221-.893-.327-.417-.137-.866-.333-.866-.333l.49.13c1.407.375 1.968.525 2.71.537a2.61 2.61 0 00.613-.058c.12 0 .48-.102.52-.227a2.993 2.993 0 01-1.013-.16c-1.29-.428-1.85-.722-2.364-.99a9.666 9.666 0 00-1.063-.499c-.57-.238-1.16-.424-1.764-.555a3.374 3.374 0 00-1.52 0c-1.587-.373-1.947-.333-2.414-.231a8.031 8.031 0 015.191-1.218V4.889h-4.813a5.333 5.333 0 00-5.333 5.333v11.556a5.333 5.333 0 005.333 5.333h4.822v-3.853a32.793 32.793 0 00-.542-.09c-.528-.085-.856-.137-1.067-.284-.084-.053-.35-.195-.413-.16a.756.756 0 01-.911-.058.687.687 0 01-.085-.075.645.645 0 01-.124-.889c.085-.089-.067-.333-.067-.333s-.444-.663-.746-1.058a3.022 3.022 0 01-.383-1.307 3.698 3.698 0 01-.484-.733 1.834 1.834 0 00-.262-.316 1.689 1.689 0 01-.156-.173.076.076 0 010-.058c.122-.254.3-.477.52-.653.107-.071.565-.347.565-.347a.889.889 0 01.666-.404c.454-.027.908.041 1.334.2l.284.089c.417.136.827.295 1.227.475.22.101.448.189.68.262.586.156 1.626-.32 1.844-.52.356-.324.507-.542.511-.724zm-2.729-2.769l-.288-.378a2.151 2.151 0 011.213 1.307c-1.169.28-.925-.929-.925-.929zm4.845 9.089a7.964 7.964 0 002.636-5.467h4.924v4.823a5.333 5.333 0 01-5.334 5.333h-4.822v-3.556a4.667 4.667 0 002.596-1.133zm-7.91-2.583a1.835 1.835 0 01-.286-.728C12.382 19.04 12 20 12 20l.204.382a1.837 1.837 0 01-.563-.543zm5.314-14.95h4.823a5.333 5.333 0 015.333 5.333v4.809h-5.014A7.889 7.889 0 0020.89 12l-.05-.045a8.263 8.263 0 00-.981-1.182 7.92 7.92 0 00-2.903-1.858V4.89z" fill="#fff"/></svg>
